packages/icons/src/components/Icon/assets/default-solid/box-essentials.svg

<svg width="20" height="20" viewBox="0 0 20 20" fill="none" xmlns="http://www.w3.org/2000/svg">
<path d="M8.9872 10.5191C9.11317 10.583 9.19254 10.7123 9.19254 10.8535V18.7057C9.19254 18.9828 8.90246 19.1642 8.65337 19.0429L1.46083 15.5407C1.33185 15.4779 1.25 15.347 1.25 15.2035V7.20455C1.25 6.92483 1.5452 6.74357 1.79466 6.87013L8.9872 10.5191ZM18.7513 15.2114C18.7513 15.3538 18.6706 15.484 18.5431 15.5473L11.545 19.023C11.2957 19.1469 11.0032 18.9655 11.0032 18.6872V10.847C11.0032 10.7069 11.0814 10.5784 11.2058 10.514L18.2039 6.89186C18.4535 6.76266 18.7513 6.94383 18.7513 7.22489V15.2114ZM17.0278 4.79316C17.2995 4.93197 17.3006 5.31989 17.0296 5.46014L10.2648 8.96147C10.1577 9.01692 10.0304 9.01744 9.92283 8.96287L3.01995 5.46149C2.74536 5.3222 2.74636 4.92964 3.02166 4.79176L9.92311 1.33512C10.0297 1.2817 10.1554 1.2822 10.2616 1.33647L17.0278 4.79316Z" fill="#727683"/>
</svg>

<svg xmlns="http://www.w3.org/2000/svg" width="20" height="20" fill="none" viewBox="0 0 20 20">
    <path fill="#727683" d="M8.987 10.52a.38.38 0 0 1 .206.334v7.852c0 .277-.29.458-.54.337L1.461 15.54a.38.38 0 0 1-.211-.338V7.206c0-.28.295-.461.545-.335zm9.764 4.691c0 .143-.08.273-.208.336l-6.998 3.476a.375.375 0 0 1-.542-.336v-7.84c0-.14.078-.269.203-.333l6.998-3.622c.25-.13.547.052.547.333zM17.028 4.793a.375.375 0 0 1 .002.667l-6.765 3.501a.38.38 0 0 1-.342.002L3.02 5.46a.375.375 0 0 1 .002-.67l6.901-3.456a.38.38 0 0 1 .339.001z"/>
</svg>
